tenants/vtwonen/icons/channel_instagram.svg

<svg fill="none" height="24" viewBox="0 0 24 24" width="24" xmlns="http://www.w3.org/2000/svg" xmlns:xlink="http://www.w3.org/1999/xlink"><clipPath id="a"><path d="m0 0h24v24h-24z"/></clipPath><g clip-path="url(#a)"><circle cx="12" cy="12" fill="#000" r="12"/><path d="m12.0018 7.8978c-2.27018 0-4.1013 1.83153-4.1013 4.1022 0 2.2707 1.83112 4.1022 4.1013 4.1022 2.2701 0 4.1013-1.8315 4.1013-4.1022 0-2.27067-1.8312-4.1022-4.1013-4.1022zm0 6.7692c-1.4671 0-2.66638-1.1961-2.66638-2.667s1.19578-2.66696 2.66638-2.66696 2.6664 1.19606 2.6664 2.66696-1.1994 2.667-2.6664 2.667zm5.2256-6.937c0 .53197-.4283.95682-.9566.95682-.5318 0-.9566-.42842-.9566-.95682 0-.52839.4284-.95682.9566-.95682.5283 0 .9566.42843.9566.95682zm2.7164.9711c-.0607-1.28171-.3534-2.41704-1.2922-3.35244-.9351-.93541-2.0702-1.22816-3.3517-1.29243-1.3206-.07497-5.2792-.07497-6.59984 0-1.27786.0607-2.41294.35345-3.35171 1.28886-.93876.9354-1.22788 2.07073-1.29213 3.35244-.07496 1.32097-.07496 5.28037 0 6.60137.06068 1.2817.35337 2.417 1.29213 3.3524.93877.9354 2.07028 1.2282 3.35171 1.2925 1.32064.0749 5.27924.0749 6.59984 0 1.2815-.0607 2.4166-.3535 3.3517-1.2925.9352-.9354 1.2279-2.0707 1.2922-3.3524.0749-1.321.0749-5.2768 0-6.5978zm-1.7062 8.0152c-.2784.6997-.8174 1.2388-1.5206 1.5209-1.053.4177-3.5516.3213-4.7152.3213-1.1637 0-3.66583.0928-4.71524-.3213-.69961-.2785-1.2386-.8176-1.52058-1.5209-.41763-1.0532-.32125-3.5524-.32125-4.7163s-.09281-3.66663.32125-4.71628c.27841-.69976.8174-1.23887 1.52058-1.52092 1.05298-.41771 3.55154-.32132 4.71524-.32132 1.1636 0 3.6658-.09282 4.7152.32132.6996.27848 1.2386.81759 1.5206 1.52092.4176 1.05322.3212 3.55238.3212 4.71628s.0964 3.6666-.3212 4.7163z" fill="#fff"/><path clip-rule="evenodd" d="m16.2919 5.71489c.0132-.05534.0644-.29563.079-.35243.0381-.15146.0556-.29272.1113-.42233.0687-.15728.1653-.28981.2605-.42233.0687-.09757.1361-.18932.218-.27233.019-.01893.0366-.03932.0556-.05825.0966-.07136.2005-.14127.3176-.19369.0703-.03059.139-.0568.2093-.08738.101-.04515.1976-.09175.3161-.12524.1186-.03496.3015-.03204.4156.00291.0469.01311.0879.02039.1303.03932.1932.08301.3278.22282.4361.39175.0776.12233.1303.2665.1815.4165.0117.03932.0146.08156.0234.12233.0059.02913.0029.08301-.0029.10631-.0059.02767-.0015.04952-.0103.07719-.0102.04223-.0219.08883-.0365.12815-.022.07136-.0322.13835-.0557.2068-.0497.14854-.098.3-.1566.43835-.0922.22281-.18.43689-.2985.63204-.0249.04223-.0425.08738-.0659.1267-.0161.02475-.0234.05242-.0366.07718-.0248.05097-.0526.1034-.0819.15146-.019.03349-.0293.0699-.0512.1034-.0469.07718-.0864.15873-.1347.23446-.0541.08447-.1156.16311-.1741.24175-.06.07864-.1405.14272-.2093.21116-.0659.06699-.1332.13544-.202.20389-.041.04077-.0863.07864-.1229.12524-.0146.01311-.0278.02621-.0425.03932-.0409.04078-.0848.08301-.12.12816-.0146.0131-.0278.02621-.0409.03932-.0293.02767-.0586.05825-.082.09029-.019.01747-.038.03641-.0585.05388-.0439.05971-.1069.10777-.1522.16748-.0176.01602-.0352.03204-.0513.04805-.0219.02767-.0453.05389-.0702.07865-.0103.00873-.022.01893-.0337.02912-.041.0568-.0761.10049-.1317.14272-.0205.02039-.0834.09175-.1024.11214-.0513.06262-.0483.0699-.0952.1165-.0556.05534-.1053.11651-.1595.17184-.0161.01602-.0512.05243-.0702.05102-.0337-.02189-.0571-.0583-.0849-.08742-.0542-.0568-.1229-.09758-.2078-.16748-.0293-.02912-.0571-.05679-.0864-.08446-.0761-.09758-.1815-.17039-.2576-.26942-.0234-.03204-.0585-.05389-.0834-.08738-.0292-.02767-.0585-.05534-.0878-.08447-.0336-.04369-.0761-.08301-.1141-.12233-.0205-.01893-.0235-.02475-.0439-.04369-.0118-.01456-.0249-.0364-.0352-.04951-.0219-.0335-.057-.05971-.0805-.0932-.079-.1034-.1683-.19515-.2473-.3-.0146-.01894-.0366-.0335-.0512-.05243-.0629-.08447-.1361-.15874-.1947-.2432-.0556-.07719-.1039-.1602-.1551-.24321-.0117-.02039-.0161-.04223-.0307-.06262-.0264-.04369-.0527-.0932-.0747-.14126-.06-.1369-.1156-.27525-.177-.41359-.0835-.18787-.1698-.36845-.2313-.58107-.0205-.07136-.0322-.19369-.0249-.2767.0044-.04078-.0029-.08301.0059-.11942.0015-.01893.0015-.03495.0029-.05388.0088-.05389.019-.10777.0264-.16165.0424-.15.0848-.29127.1434-.42379.06-.13544.1449-.25485.2283-.36699.0249-.03495.0498-.06699.0776-.09612.1214-.12378.2429-.20971.4375-.26359.0527-.01456.1464-.03204.2137-.01456.0366.00582.0732.0131.1112.01893.1318.04515.2444.10194.3469.17476.1785.12524.3073.29417.4244.48058.0556.08738.1186.17767.1625.27816.0468.10485.0848.21844.1229.33349.0293.08155.0366.16893.0585.25777" fill="#e40047" fill-rule="evenodd"/></g></svg>

<svg width="24" height="24" viewBox="0 0 24 24" fill="none" xmlns="http://www.w3.org/2000/svg">
<g clip-path="url(#clip0_2128_24076)">
<circle cx="12" cy="12" r="12" fill="black"/>
<path d="M12.0018 7.8978C9.73162 7.8978 7.9005 9.72933 7.9005 12C7.9005 14.2707 9.73162 16.1022 12.0018 16.1022C14.2719 16.1022 16.1031 14.2707 16.1031 12C16.1031 9.72933 14.2719 7.8978 12.0018 7.8978ZM12.0018 14.667C10.5347 14.667 9.33542 13.4709 9.33542 12C9.33542 10.5291 10.5312 9.33304 12.0018 9.33304C13.4724 9.33304 14.6682 10.5291 14.6682 12C14.6682 13.4709 13.4688 14.667 12.0018 14.667ZM17.2274 7.73C17.2274 8.26197 16.7991 8.68682 16.2708 8.68682C15.739 8.68682 15.3142 8.2584 15.3142 7.73C15.3142 7.20161 15.7426 6.77318 16.2708 6.77318C16.7991 6.77318 17.2274 7.20161 17.2274 7.73ZM19.9438 8.7011C19.8831 7.41939 19.5904 6.28406 18.6516 5.34866C17.7165 4.41325 16.5814 4.1205 15.2999 4.05623C13.9793 3.98126 10.0207 3.98126 8.70006 4.05623C7.4222 4.11693 6.28712 4.40968 5.34835 5.34509C4.40959 6.28049 4.12047 7.41582 4.05622 8.69753C3.98126 10.0185 3.98126 13.9779 4.05622 15.2989C4.1169 16.5806 4.40959 17.7159 5.34835 18.6513C6.28712 19.5867 7.41863 19.8795 8.70006 19.9438C10.0207 20.0187 13.9793 20.0187 15.2999 19.9438C16.5814 19.8831 17.7165 19.5903 18.6516 18.6513C19.5868 17.7159 19.8795 16.5806 19.9438 15.2989C20.0187 13.9779 20.0187 10.0221 19.9438 8.7011ZM18.2376 16.7163C17.9592 17.416 17.4202 17.9551 16.717 18.2372C15.664 18.6549 13.1654 18.5585 12.0018 18.5585C10.8381 18.5585 8.33597 18.6513 7.28656 18.2372C6.58695 17.9587 6.04796 17.4196 5.76598 16.7163C5.34835 15.6631 5.44473 13.1639 5.44473 12C5.44473 10.8361 5.35192 8.33337 5.76598 7.28372C6.04439 6.58396 6.58338 6.04485 7.28656 5.7628C8.33954 5.34509 10.8381 5.44148 12.0018 5.44148C13.1654 5.44148 15.6676 5.34866 16.717 5.7628C17.4166 6.04128 17.9556 6.58039 18.2376 7.28372C18.6552 8.33694 18.5588 10.8361 18.5588 12C18.5588 13.1639 18.6552 15.6666 18.2376 16.7163Z" fill="white"/>
<path fill-rule="evenodd" clip-rule="evenodd" d="M16.2919 5.71489C16.3051 5.65955 16.3563 5.41926 16.3709 5.36246C16.409 5.211 16.4265 5.06974 16.4822 4.94013C16.5509 4.78285 16.6475 4.65032 16.7427 4.5178C16.8114 4.42023 16.8788 4.32848 16.9607 4.24547C16.9797 4.22654 16.9973 4.20615 17.0163 4.18722C17.1129 4.11586 17.2168 4.04595 17.3339 3.99353C17.4042 3.96294 17.4729 3.93673 17.5432 3.90615C17.6442 3.861 17.7408 3.8144 17.8593 3.78091C17.9779 3.74595 18.1608 3.74887 18.2749 3.78382C18.3218 3.79693 18.3628 3.80421 18.4052 3.82314C18.5984 3.90615 18.733 4.04596 18.8413 4.21489C18.9189 4.33722 18.9716 4.48139 19.0228 4.63139C19.0345 4.67071 19.0374 4.71295 19.0462 4.75372C19.0521 4.78285 19.0491 4.83673 19.0433 4.86003C19.0374 4.8877 19.0418 4.90955 19.033 4.93722C19.0228 4.97945 19.0111 5.02605 18.9965 5.06537C18.9745 5.13673 18.9643 5.20372 18.9408 5.27217C18.8911 5.42071 18.8428 5.57217 18.7842 5.71052C18.692 5.93333 18.6042 6.14741 18.4857 6.34256C18.4608 6.38479 18.4432 6.42994 18.4198 6.46926C18.4037 6.49401 18.3964 6.52168 18.3832 6.54644C18.3584 6.59741 18.3306 6.64984 18.3013 6.6979C18.2823 6.73139 18.272 6.7678 18.2501 6.8013C18.2032 6.87848 18.1637 6.96003 18.1154 7.03576C18.0613 7.12023 17.9998 7.19887 17.9413 7.27751C17.8813 7.35615 17.8008 7.42023 17.732 7.48867C17.6661 7.55566 17.5988 7.62411 17.53 7.69256C17.489 7.73333 17.4437 7.7712 17.4071 7.8178C17.3925 7.83091 17.3793 7.84401 17.3646 7.85712C17.3237 7.8979 17.2798 7.94013 17.2446 7.98528C17.23 7.99838 17.2168 8.01149 17.2037 8.0246C17.1744 8.05227 17.1451 8.08285 17.1217 8.11489C17.1027 8.13236 17.0837 8.1513 17.0632 8.16877C17.0193 8.22848 16.9563 8.27654 16.911 8.33625C16.8934 8.35227 16.8758 8.36829 16.8597 8.3843C16.8378 8.41197 16.8144 8.43819 16.7895 8.46295C16.7792 8.47168 16.7675 8.48188 16.7558 8.49207C16.7148 8.54887 16.6797 8.59256 16.6241 8.63479C16.6036 8.65518 16.5407 8.72654 16.5217 8.74693C16.4704 8.80955 16.4734 8.81683 16.4265 8.86343C16.3709 8.91877 16.3212 8.97994 16.267 9.03527C16.2509 9.05129 16.2158 9.0877 16.1968 9.08629C16.1631 9.0644 16.1397 9.02799 16.1119 8.99887C16.0577 8.94207 15.989 8.90129 15.9041 8.83139C15.8748 8.80227 15.847 8.7746 15.8177 8.74693C15.7416 8.64935 15.6362 8.57654 15.5601 8.47751C15.5367 8.44547 15.5016 8.42362 15.4767 8.39013C15.4475 8.36246 15.4182 8.33479 15.3889 8.30566C15.3553 8.26197 15.3128 8.22265 15.2748 8.18333C15.2543 8.1644 15.2513 8.15858 15.2309 8.13964C15.2191 8.12508 15.206 8.10324 15.1957 8.09013C15.1738 8.05663 15.1387 8.03042 15.1152 7.99693C15.0362 7.89353 14.9469 7.80178 14.8679 7.69693C14.8533 7.67799 14.8313 7.66343 14.8167 7.6445C14.7538 7.56003 14.6806 7.48576 14.622 7.4013C14.5664 7.32411 14.5181 7.2411 14.4669 7.15809C14.4552 7.1377 14.4508 7.11586 14.4362 7.09547C14.4098 7.05178 14.3835 7.00227 14.3615 6.95421C14.3015 6.81731 14.2459 6.67896 14.1845 6.54062C14.101 6.35275 14.0147 6.17217 13.9532 5.95955C13.9327 5.88819 13.921 5.76586 13.9283 5.68285C13.9327 5.64207 13.9254 5.59984 13.9342 5.56343C13.9357 5.5445 13.9357 5.52848 13.9371 5.50955C13.9459 5.45566 13.9561 5.40178 13.9635 5.3479C14.0059 5.1979 14.0483 5.05663 14.1069 4.92411C14.1669 4.78867 14.2518 4.66926 14.3352 4.55712C14.3601 4.52217 14.385 4.49013 14.4128 4.461C14.5342 4.33722 14.6557 4.25129 14.8503 4.19741C14.903 4.18285 14.9967 4.16537 15.064 4.18285C15.1006 4.18867 15.1372 4.19595 15.1752 4.20178C15.307 4.24693 15.4196 4.30372 15.5221 4.37654C15.7006 4.50178 15.8294 4.67071 15.9465 4.85712C16.0021 4.9445 16.0651 5.03479 16.109 5.13528C16.1558 5.24013 16.1938 5.35372 16.2319 5.46877C16.2612 5.55032 16.2685 5.6377 16.2904 5.72654" fill="#E40047"/>
</g>
<defs>
<clipPath id="clip0_2128_24076">
<rect width="24" height="24" fill="white"/>
</clipPath>
</defs>
</svg>
